src/components/Icon/assets/tag.svg

<svg width="24" height="24" viewBox="0 0 24 24" fill="none" xmlns="http://www.w3.org/2000/svg">
<g id="tag">
<path id="Combined Shape" fill-rule="evenodd" clip-rule="evenodd" d="M10.0482 19.6064L20.0002 9.6544V4.0004H14.3462L4.39421 13.9524L10.0482 19.6064ZM2.6262 12.8914L13.5182 2.0004H22.0002V10.4824L11.1082 21.3744C10.8252 21.6574 10.4482 21.8134 10.0482 21.8134H10.0472C9.6462 21.8134 9.2702 21.6574 8.9872 21.3744L2.6262 15.0124C2.0412 14.4274 2.0412 13.4764 2.6262 12.8914ZM18.6149 7.0294C18.6149 7.8584 17.9439 8.5294 17.1149 8.5294C16.2869 8.5294 15.6149 7.8584 15.6149 7.0294C15.6149 6.2004 16.2869 5.5294 17.1149 5.5294C17.9439 5.5294 18.6149 6.2004 18.6149 7.0294Z" fill="#242428"/>
</g>
</svg>

<svg xmlns="http://www.w3.org/2000/svg" width="24" height="24" fill="none" viewBox="0 0 24 24">
    <path fill="#65676A" fill-rule="evenodd" d="M10.048 19.606L20 9.654V4h-5.654l-9.952 9.952 5.654 5.654zm-7.422-6.715l10.892-10.89H22v8.481L11.108 21.374c-.283.283-.66.44-1.06.44-.402 0-.778-.157-1.06-.44l-6.362-6.362c-.585-.585-.585-1.536 0-2.12zM18.615 7.03c0 .83-.671 1.5-1.5 1.5-.828 0-1.5-.67-1.5-1.5 0-.829.672-1.5 1.5-1.5.829 0 1.5.671 1.5 1.5z" clip-rule="evenodd"/>
</svg>
